X:1402
T:The Highway To Limerick
M:C|
L:1/8
N:"collected by F. O'Neill"
B:O'Neill's 1402
Z:"Transcribed by Bob Safranek, rjs@gsp.org"
K:Am
EAAB          cBAc|BAGB  dBGA|EAAB    cBcd|3efg dB TBA A2 :|
eaag          efge|dBGc  AG E2|eaag  efga|bagb a2 ab|
3c'ba bg efge|dBgd TBG G2|EAAB dcBcd|3efg dB TBA A2|]
